X:17
%%newpage
%%text suggested set from Diane -- to be discussed
T: Whiskey Before Breakfast / Nail That Catfish to the Tree
T: ---------------------------------------------------------------------------------
T: Whiskey Before Breakfast
M: C|
R: reel
K: D
Q: 1/2=110
"D"DEFG A2 AA | ABAG FE DF | "G"G2BG "D"F2AF | "A7"EDEF EDB,C  |
"D"DEFG A2 AA | ABAG FE DF | "G"G2BG "D"F2AF | "A"EDEF  "D"D4 :|]
|:"D"A2d2 d2Bc| dcdA BAFA| "Em"e4 e2ef| gfed "A7"cABc |
"D"d2fd "A"c2ec| "G"BABc "D"BAFD| "G"G2BG "D"F2AF| "A7"EDEF "D"D4 :|
%%text 2015-01-08
%%text .
